localPackages/DesignSystem/Sources/DesignSystem/Resources/Assets.xcassets/IconSet/ic-users-plus.imageset/ic-users-plus.svg

<svg width="24" height="24" viewBox="0 0 24 24" fill="none" xmlns="http://www.w3.org/2000/svg">
<g id="ic-users-plus">
<path id="Icon" fill-rule="evenodd" clip-rule="evenodd" d="M9.75 10.5C10.9926 10.5 12 9.49264 12 8.25C12 7.00736 10.9926 6 9.75 6C8.50736 6 7.5 7.00736 7.5 8.25C7.5 9.49264 8.50736 10.5 9.75 10.5ZM9.75 12C11.8211 12 13.5 10.3211 13.5 8.25C13.5 6.17893 11.8211 4.5 9.75 4.5C7.67893 4.5 6 6.17893 6 8.25C6 10.3211 7.67893 12 9.75 12ZM6.93577 15H12.5642C13.0673 15 13.5405 15.2612 13.8127 15.7003L14.9509 17.5363C15.0152 17.64 15.0149 17.748 14.9589 17.85C14.9032 17.9512 14.8194 18 14.7118 18H4.78825C4.68057 18 4.59676 17.9512 4.54113 17.85C4.48509 17.748 4.48485 17.64 4.54913 17.5363L5.68732 15.7003C5.95953 15.2612 6.43267 15 6.93577 15ZM4.41242 14.91C4.95619 14.0329 5.9098 13.5 6.93577 13.5H12.5642C13.5902 13.5 14.5438 14.0329 15.0876 14.91L16.2258 16.746C16.969 17.9449 16.1141 19.5 14.7118 19.5H4.78825C3.38594 19.5 2.53101 17.9449 3.27424 16.746L4.41242 14.91ZM18.0534 13.5H16.5V15H18.0534C18.6904 15 19.3004 15.2903 19.7158 15.8021L20.8945 17.2544C21.1553 17.5757 20.9003 18 20.579 18H17.961V19.5H20.579C22.2395 19.5 23.0672 17.551 22.0592 16.3091L20.8804 14.8568C20.1855 14.0006 19.1507 13.5 18.0534 13.5ZM18.75 9C18.75 9.82843 18.0784 10.5 17.25 10.5C16.4216 10.5 15.75 9.82843 15.75 9C15.75 8.17157 16.4216 7.5 17.25 7.5C18.0784 7.5 18.75 8.17157 18.75 9ZM20.25 9C20.25 10.6569 18.9069 12 17.25 12C15.5931 12 14.25 10.6569 14.25 9C14.25 7.34315 15.5931 6 17.25 6C18.9069 6 20.25 7.34315 20.25 9ZM2.25 10.5V9C2.25 8.58579 2.58579 8.25 3 8.25C3.41421 8.25 3.75 8.58579 3.75 9V10.5H5.25C5.66421 10.5 6 10.8358 6 11.25C6 11.6642 5.66421 12 5.25 12H3.75V13.5C3.75 13.9142 3.41421 14.25 3 14.25C2.58579 14.25 2.25 13.9142 2.25 13.5V12H0.75C0.335786 12 0 11.6642 0 11.25C0 10.8358 0.335787 10.5 0.75 10.5H2.25Z" fill="#0F0F0F"/>
</g>
</svg>

<svg xmlns="http://www.w3.org/2000/svg" width="24" height="24" viewBox="0 0 24 24">
  <g class="ic-users-plus">
    <path fill-rule="evenodd" d="M9.75 10.5a2.25 2.25 0 1 0 0-4.5 2.25 2.25 0 0 0 0 4.5Zm0 1.5a3.75 3.75 0 1 0 0-7.5 3.75 3.75 0 0 0 0 7.5Zm-2.814 3h5.628c.503 0 .976.261 1.249.7l1.138 1.836a.296.296 0 0 1 .008.314.267.267 0 0 1-.247.15H4.788a.267.267 0 0 1-.247-.15.296.296 0 0 1 .008-.314L5.687 15.7c.273-.439.746-.7 1.249-.7Zm-2.524-.09a2.97 2.97 0 0 1 2.524-1.41h5.628a2.97 2.97 0 0 1 2.524 1.41l1.138 1.836c.743 1.199-.112 2.754-1.514 2.754H4.788c-1.402 0-2.257-1.555-1.514-2.754l1.138-1.836Zm13.641-1.41H16.5V15h1.553c.637 0 1.247.29 1.663.802l1.178 1.452c.261.322.006.746-.315.746h-2.618v1.5h2.618c1.66 0 2.488-1.949 1.48-3.19l-1.179-1.453a3.642 3.642 0 0 0-2.827-1.357ZM18.75 9a1.5 1.5 0 1 1-3 0 1.5 1.5 0 0 1 3 0Zm1.5 0a3 3 0 1 1-6 0 3 3 0 0 1 6 0Zm-18 1.5V9a.75.75 0 0 1 1.5 0v1.5h1.5a.75.75 0 0 1 0 1.5h-1.5v1.5a.75.75 0 0 1-1.5 0V12H.75a.75.75 0 0 1 0-1.5h1.5Z" class="Icon"/>
  </g>
</svg>
